source/images/vector/meedan-logo.svg

<svg width="103" height="80" viewBox="0 0 103 80" xmlns="http://www.w3.org/2000/svg"><title>meedan-logo</title><g fill="none"><path fill="#91A000" d="M51.705 27.032L33.957 39.863l17.748 12.83 17.748-12.83-17.748-12.831"/><path d="M17.505 2.307a10.383 10.383 0 0 1 4.086 8.262v20.355l12.365 8.939 17.748-12.831L17.505 2.307" fill="#9DC538"/><path d="M17.505 77.417a10.383 10.383 0 0 0 4.086-8.262V48.8l12.365-8.937 17.748 12.829-34.199 24.725" fill="#FBD202"/><path d="M17.505 2.307l-.51-.367A10.345 10.345 0 0 0 11.192.171C5.45.171.794 4.827.794 10.569c0 3.483 1.714 6.563 4.343 8.451v.008l16.454 11.897V10.569c0-3.368-1.603-6.361-4.086-8.262" fill="#843F18"/><path d="M21.591 69.155V48.801L5.137 60.696v.01a10.382 10.382 0 0 0-4.342 8.45c0 5.742 4.655 10.398 10.398 10.398a10.35 10.35 0 0 0 5.803-1.769l.509-.368a10.38 10.38 0 0 0 4.086-8.262" fill="#EB4918"/><path d="M5.137 19.02a10.384 10.384 0 0 1-4.343-8.451v58.57c0-3.482 1.714-6.562 4.343-8.451l16.454-11.903V30.923L5.137 19.02" fill="#F17522"/><path d="M85.904 2.307a10.383 10.383 0 0 0-4.086 8.262v20.355l-12.365 8.939-17.748-12.831L85.904 2.307" fill="#FBD202"/><path d="M85.904 77.417a10.383 10.383 0 0 1-4.086-8.262V48.8l-12.365-8.937-17.748 12.83 34.199 24.724" fill="#9DC538"/><path d="M81.819 10.569v20.354l16.454-11.895v-.01a10.38 10.38 0 0 0 4.342-8.45C102.615 4.826 97.96.17 92.217.17a10.35 10.35 0 0 0-5.803 1.769l-.509.368a10.38 10.38 0 0 0-4.086 8.262" fill="#00A013"/><path d="M85.904 77.417l.51.368a10.352 10.352 0 0 0 5.803 1.768c5.742 0 10.398-4.656 10.398-10.398 0-3.483-1.714-6.562-4.343-8.45v-.009L81.818 48.8v20.355c0 3.368 1.603 6.361 4.086 8.262" fill="#01722F"/><path d="M98.272 19.02a10.384 10.384 0 0 0 4.343-8.451v58.57c0-3.482-1.714-6.562-4.343-8.451L81.818 48.785V30.923L98.272 19.02" fill="#37A0DE"/></g></svg>

<?xml version="1.0" encoding="UTF-8"?>
<svg width="103px" height="80px" viewBox="0 0 103 80" version="1.1" xmlns="http://www.w3.org/2000/svg" xmlns:xlink="http://www.w3.org/1999/xlink">
    <!-- Generator: Sketch 42 (36781) - http://www.bohemiancoding.com/sketch -->
    <title>meedan-logo</title>
    <desc>Created with Sketch.</desc>
    <defs></defs>
    <g id="Page-1" stroke="none" stroke-width="1" fill="none" fill-rule="evenodd">
        <g id="meedan-logo" fill-rule="nonzero">
            <g id="meedan-logo-text">
                <g id="Imported-Layers">
                    <g id="Page-1">
                        <g id="Imported-Layers">
                            <polyline id="Fill-1" fill="#91A000" points="51.705 27.032 33.957 39.863 51.705 52.693 69.453 39.863 51.705 27.032"></polyline>
                            <path d="M17.505,2.307 C19.988,4.208 21.591,7.201 21.591,10.569 L21.591,30.924 L33.956,39.863 L51.704,27.032 L17.505,2.307" id="Fill-2" fill="#9DC538"></path>
                            <path d="M17.505,77.417 C19.988,75.516 21.591,72.523 21.591,69.155 L21.591,48.8 L33.956,39.863 L51.704,52.692 L17.505,77.417" id="Fill-3" fill="#FBD202"></path>
                            <path d="M17.505,2.307 L16.995,1.94 C15.338,0.823 13.342,0.171 11.192,0.171 C5.45,0.171 0.794,4.827 0.794,10.569 C0.794,14.052 2.508,17.132 5.137,19.02 L5.137,19.028 L21.591,30.925 L21.591,10.569 C21.591,7.201 19.988,4.208 17.505,2.307" id="Fill-4" fill="#843F18"></path>
                            <path d="M21.591,69.155 L21.591,48.801 L5.137,60.696 L5.137,60.706 C2.509,62.592 0.795,65.674 0.795,69.156 C0.795,74.898 5.45,79.554 11.193,79.554 C13.342,79.554 15.338,78.902 16.996,77.785 L17.505,77.417 C19.989,75.516 21.591,72.523 21.591,69.155" id="Fill-5" fill="#EB4918"></path>
                            <path d="M5.137,19.02 C2.508,17.133 0.794,14.051 0.794,10.569 L0.794,69.139 C0.794,65.657 2.508,62.577 5.137,60.688 L21.591,48.785 L21.591,30.923 L5.137,19.02" id="Fill-6" fill="#F17522"></path>
                            <path d="M85.904,2.307 C83.421,4.208 81.818,7.201 81.818,10.569 L81.818,30.924 L69.453,39.863 L51.705,27.032 L85.904,2.307" id="Fill-7" fill="#FBD202"></path>
                            <path d="M85.904,77.417 C83.421,75.516 81.818,72.523 81.818,69.155 L81.818,48.8 L69.453,39.863 L51.705,52.693 L85.904,77.417" id="Fill-8" fill="#9DC538"></path>
                            <path d="M81.819,10.569 L81.819,30.923 L98.273,19.028 L98.273,19.018 C100.901,17.133 102.615,14.05 102.615,10.568 C102.615,4.826 97.96,0.17 92.217,0.17 C90.068,0.17 88.072,0.822 86.414,1.939 L85.905,2.307 C83.421,4.208 81.819,7.201 81.819,10.569" id="Fill-9" fill="#00A013"></path>
                            <path d="M85.904,77.417 L86.414,77.785 C88.071,78.901 90.067,79.553 92.217,79.553 C97.959,79.553 102.615,74.897 102.615,69.155 C102.615,65.672 100.901,62.593 98.272,60.705 L98.272,60.696 L81.818,48.8 L81.818,69.155 C81.818,72.523 83.421,75.516 85.904,77.417" id="Fill-10" fill="#01722F"></path>
                            <path d="M98.272,19.02 C100.901,17.133 102.615,14.051 102.615,10.569 L102.615,69.139 C102.615,65.657 100.901,62.577 98.272,60.688 L81.818,48.785 L81.818,30.923 L98.272,19.02" id="Fill-11" fill="#37A0DE"></path>
                        </g>
                    </g>
                </g>
            </g>
        </g>
    </g>
</svg>
